X: 3356
M: C
L: 1/8
K: C
(GE) |\
dedc BAGF | EFGA G2(GE) |\
egec BGFD | C2c2 c2 :|
|: (ef) |\
gece geag | fed^c d2(de) |\
fdBd fdgf | edcB c2(GE) |\
egec BGFD | C2c2 c2 :|


